dist/img/protostar.svg

<svg height="84" viewBox="590 322 112 84" width="112" xmlns="http://www.w3.org/2000/svg"><ellipse cx="644.001637" cy="347.95915" fill="#d8d8d8" fill-rule="evenodd" opacity=".237757" rx="26.001637" ry="25.95915"/><text fill="none" font-family="ConcourseT6, Concourse T6" font-size="14" font-weight="500" letter-spacing=".204545438"><tspan fill="#fff" x="639.067727" y="353">H</tspan></text><path d="m689.746251 377.309897c2.535892-.734068 5.057622.784641 5.900384 3.767953l.339228 1.17189 4.207274-1.217885 1.04549 3.611725-13.063683 3.781558-1.390279-4.802825c-.906462-3.131441.079892-5.478249 2.961586-6.312416zm1.056612 3.650146c-1.018199.294739-1.32002 1.19413-1.041964 2.154695l.25025.864509 3.169864-.917584-.25025-.864509c-.239128-.826086-1.032856-1.554094-2.1279-1.237111zm-4.295172-21.600809.082482-.056539 2.374648 3.464253-2.559509 5.852325.147002.214454 4.470535-3.064427 2.125876 3.101331-11.21758 7.689337-2.872194-4.190097c-1.831871-2.672423-1.492611-5.184256.437472-6.507274 1.567162-1.074245 3.216131-.967937 4.542617-.058631zm-4.549344 9.422838c-.725844.497545-.848509 1.309058-.328348 2.067895l.63324.9238 2.358991-1.617022-.644547-.940297c-.47493-.692851-1.194514-.999768-2.019336-.434376zm-16.812999-15.517581c2.517896-3.361577 6.645643-3.768161 9.863152-1.358174 3.345569 2.505906 4.104005 6.397432 1.502179 9.871062-2.577847 3.441614-6.941625 3.796345-10.015067 1.494269-3.105456-2.326057-3.96408-6.51752-1.350264-10.007157zm3.097484 2.370061c-1.486758 1.984931-1.105531 3.944693.30313 4.999812 1.34463 1.007158 3.308535.853929 4.819273-1.163017 1.438798-1.920901 1.097621-3.800688-.423092-4.939736-1.440676-1.079099-3.284493-.785944-4.699311 1.102941zm-19.674594-.8415-.862252 3.206076 10.429404 2.804913.862251-3.206076-3.399213-.914194 2.669862-9.927247-3.630978-.976525-2.669861 9.927247zm-18.159471-1.394361c-.181101-4.196093 2.755319-7.125434 6.771581-7.298773 4.176112-.180239 7.228075 2.350516 7.415212 6.68648.185413 4.296001-2.96649 7.334735-6.802919 7.500313-3.876391.167302-7.195874-2.532075-7.383874-6.88802zm3.898098-.128202c.106936 2.477694 1.643339 3.752631 3.401702 3.676741 1.678438-.07244 3.101006-1.435048 2.992345-3.952704-.103486-2.397768-1.558239-3.636192-3.456472-3.554265-1.798326.077614-3.039337 1.472423-2.937575 3.830228zm-9.864352-.866837.338975 3.404805c-1.322484-.299726-2.785703-.184009-3.878192.312445-1.09249.496454-1.372276 1.04099-1.173694 1.477986.248227.546245 1.199982.465235 2.300697.470312 2.971104.011885 4.78516.571529 5.728422 2.64726.786051 1.729775.014475 4.189342-2.680333 5.413928-1.747984.794326-3.33866.967963-4.917718.828766l-.436631-3.426332c1.468149.233532 2.76254.084694 3.782197-.378663.546245-.248227.961738-.590814.746608-1.064226-.256501-.564453-1.555847-.523204-3.12995-.554811-3.129998-.071489-4.29681-1.188875-4.925651-2.572695-1.208037-2.658392.803256-4.758653 3.061068-5.784657 1.839025-.835697 3.879926-1.082118 5.184202-.774118zm-15.756856 23.441136 2.614537-2.356819-6.882984-7.635636 2.792801-2.517511 6.882984 7.635636 2.614537-2.35682 2.222909 2.465984-8.021875 7.23115zm-14.111367 6.17407 2.275579.375423 2.345656-3.863716-1.403742-1.811493 1.972012-3.248257 8.895659 11.553998-1.660642 2.735374-14.396534-2.493073zm9.165823 1.821012-2.656652-2.946489-1.255861 2.068627 3.819102 1.031727zm-13.171874 20.877665-.098268-.01853.778228-4.12727 5.952432-2.317185.048176-.255498-5.326144-1.004285.696699-3.694889 13.364495 2.519976-.941285 4.992032c-.600348 3.183894-2.619259 4.716342-4.918738 4.282758-1.867099-.352056-2.955589-1.595273-3.247607-3.176768zm9.886286-3.427499c.864761.163057 1.52624-.322789 1.696709-1.226858l.207527-1.100606-2.810475-.529936-.211233 1.120259c-.155645.825454.134789 1.551848 1.117472 1.737141z" fill="#fff" fill-rule="evenodd" opacity=".247435" transform="matrix(-1 0 0 -1 1291.708598 750.946786)"/></svg>

<svg width="112px" height="84px" viewBox="590 322 112 84" version="1.1" xmlns="http://www.w3.org/2000/svg" xmlns:xlink="http://www.w3.org/1999/xlink" class="protostar">
    <defs></defs>
    <ellipse id="protostar-bg" stroke="none" fill="#D8D8D8" fill-rule="evenodd" opacity="0.23775653" cx="644.001637" cy="347.95915" rx="26.0016367" ry="25.9591503"></ellipse>
    <text id="protostar-h" stroke="none" fill="none" font-family="ConcourseT6, Concourse T6" font-size="14" font-weight="500" letter-spacing="0.204545438">
        <tspan x="639.067727" y="353" fill="#FFFFFF">H</tspan>
    </text>
    <path d="M689.746251,377.309897 C692.282143,376.575829 694.803873,378.094538 695.646635,381.07785 L695.985863,382.24974 L700.193137,381.031855 L701.238627,384.64358 L688.174944,388.425138 L686.784665,383.622313 C685.878203,380.490872 686.864557,378.144064 689.746251,377.309897 Z M690.802863,380.960043 C689.784664,381.254782 689.482843,382.154173 689.760899,383.114738 L690.011149,383.979247 L693.181013,383.061663 L692.930763,382.197154 C692.691635,381.371068 691.897907,380.64306 690.802863,380.960043 Z M686.507691,359.359234 L686.590173,359.302695 L688.964821,362.766948 L686.405312,368.619273 L686.552314,368.833727 L691.022849,365.7693 L693.148725,368.870631 L681.931145,376.559968 L679.058951,372.369871 C677.22708,369.697448 677.56634,367.185615 679.496423,365.862597 C681.063585,364.788352 682.712554,364.89466 684.03904,365.803966 L686.507691,359.359234 Z M681.958347,368.782072 C681.232503,369.279617 681.109838,370.09113 681.629999,370.849967 L682.263239,371.773767 L684.62223,370.156745 L683.977683,369.216448 C683.502753,368.523597 682.783169,368.21668 681.958347,368.782072 Z M665.145348,353.264491 C667.663244,349.902914 671.790991,349.49633 675.0085,351.906317 C678.354069,354.412223 679.112505,358.303749 676.510679,361.777379 C673.932832,365.218993 669.569054,365.573724 666.495612,363.271648 C663.390156,360.945591 662.531532,356.754128 665.145348,353.264491 Z M668.242832,355.634552 C666.756074,357.619483 667.137301,359.579245 668.545962,360.634364 C669.890592,361.641522 671.854497,361.488293 673.365235,359.471347 C674.804033,357.550446 674.462856,355.670659 672.942143,354.531611 C671.501467,353.452512 669.65765,353.745667 668.242832,355.634552 Z M648.568238,354.793052 L647.705986,357.999128 L658.13539,360.804041 L658.997641,357.597965 L655.598428,356.683771 L658.26829,346.756524 L654.637312,345.779999 L651.967451,355.707246 L648.568238,354.793052 Z M630.408767,353.398691 C630.227666,349.202598 633.164086,346.273257 637.180348,346.099918 C641.35646,345.919679 644.408423,348.450434 644.59556,352.786398 C644.780973,357.082399 641.62907,360.121133 637.792641,360.286711 C633.91625,360.454013 630.596767,357.754636 630.408767,353.398691 Z M634.306865,353.270489 C634.413801,355.748183 635.950204,357.02312 637.708567,356.94723 C639.387005,356.87479 640.809573,355.512182 640.700912,352.994526 C640.597426,350.596758 639.142673,349.358334 637.24444,349.440261 C635.446114,349.517875 634.205103,350.912684 634.306865,353.270489 Z M624.442513,352.403652 L624.781488,355.808457 C623.459004,355.508731 621.995785,355.624448 620.903296,356.120902 C619.810806,356.617356 619.53102,357.161892 619.729602,357.598888 C619.977829,358.145133 620.929584,358.064123 622.030299,358.0692 C625.001403,358.081085 626.815459,358.640729 627.758721,360.71646 C628.544772,362.446235 627.773196,364.905802 625.078388,366.130388 C623.330404,366.924714 621.739728,367.098351 620.16067,366.959154 L619.724039,363.532822 C621.192188,363.766354 622.486579,363.617516 623.506236,363.154159 C624.052481,362.905932 624.467974,362.563345 624.252844,362.089933 C623.996343,361.52548 622.696997,361.566729 621.122894,361.535122 C617.992896,361.463633 616.826084,360.346247 616.197243,358.962427 C614.989206,356.304035 617.000499,354.203774 619.258311,353.17777 C621.097336,352.342073 623.138237,352.095652 624.442513,352.403652 Z M608.685657,375.844788 L611.300194,373.487969 L604.41721,365.852333 L607.210011,363.334822 L614.092995,370.970458 L616.707532,368.613638 L618.930441,371.079622 L610.908566,378.310772 L608.685657,375.844788 Z M594.57429,382.018858 L596.849869,382.394281 L599.195525,378.530565 L597.791783,376.719072 L599.763795,373.470815 L608.659454,385.024813 L606.998812,387.760187 L592.602278,385.267114 L594.57429,382.018858 Z M603.740113,383.83987 L601.083461,380.893381 L599.8276,382.962008 L603.646702,383.993735 L603.740113,383.83987 Z M590.568239,404.717535 L590.469971,404.699005 L591.248199,400.571735 L597.200631,398.25455 L597.248807,397.999052 L591.922663,396.994767 L592.619362,393.299878 L605.983857,395.819854 L605.042572,400.811886 C604.442224,403.99578 602.423313,405.528228 600.123834,405.094644 C598.256735,404.742588 597.168245,403.499371 596.876227,401.917876 L590.568239,404.717535 Z M600.454525,401.290036 C601.319286,401.453093 601.980765,400.967247 602.151234,400.063178 L602.358761,398.962572 L599.548286,398.432636 L599.337053,399.552895 C599.181408,400.378349 599.471842,401.104743 600.454525,401.290036 Z" id="protostar-text" stroke="none" fill="#FFFFFF" fill-rule="evenodd" opacity="0.247434701" transform="translate(645.854299, 375.473393) rotate(180.000000) translate(-645.854299, -375.473393) "></path>
</svg>
